!!!COM: Palestrina, Giovanni Perluigi da
!!!OPR: Pro Defunctis
!!!OTL: Benedictus
**kern	**kern	**kern	**kern	**kern
*Ibass	*Itenor	*Itenor	*Icalto	*Icant
!Bassus	!Tenor 2	!Tenor 1	!Altus	!Cantus
*clefF4	*clefGv2	*clefGv2	*clefG2	*clefG2
*k[]	*k[]	*k[]	*k[]	*k[]
*?:X	*?:X	*?:X	*?:X	*?:X
*M4/2	*M4/2	*M4/2	*M4/2	*M4/2
=1	=1	=1	=1	=1
0F	0r	0r	0r	0r
=2	=2	=2	=2	=2
1G	0r	0r	0r	0r
1A	.	.	.	.
=3	=3	=3	=3	=3
1A	0F	0r	0r	0r
2D	.	.	.	.
[2F	.	.	.	.
=4	=4	=4	=4	=4
4F]	1G	0r	0r	0r
8E	.	.	.	.
8D	.	.	.	.
2E	.	.	.	.
2.F	1A	.	.	.
4E	.	.	.	.
=5	=5	=5	=5	=5
2.D	1A	0F	0r	0r
4C	.	.	.	.
2.BB-	2D	.	.	.
.	[2F	.	.	.
4AA	.	.	.	.
=6	=6	=6	=6	=6
1GG	4F]	1G	1r	0r
.	8E	.	.	.
.	8D	.	.	.
.	2E	.	.	.
1FF	2.F	1A	[1c	.
.	4G	.	.	.
=7	=7	=7	=7	=7
2.F	4A	1A	1c]	0f
.	4B-	.	.	.
.	2c	.	.	.
4E	.	.	.	.
2D	1F	1A	1d	.
2D	.	.	.	.
=8	=8	=8	=8	=8
1C	2r	0c	1e	1g
.	1E	.	.	.
[1AA	.	.	1e	1a
.	2E	.	.	.
=9	=9	=9	=9	=9
1AA]	2.A	1.c	1e	1a
.	4B	.	.	.
1A	1c	.	1e	1a
.	.	2A	.	.
=10	=10	=10	=10	=10
2.F	2c	2.A	0f	1a
.	2c	.	.	.
4E	.	4G	.	.
1D	1d	2.F	.	1a
.	.	4G	.	.
=11	=11	=11	=11	=11
1AA	2c	1A	[0e	0a
.	2A	.	.	.
1AA	[1c	1r	.	.
=12	=12	=12	=12	=12
1C	2c]	0G	1e]	0r
.	2c	.	.	.
1GG	2.B-	.	[1d	.
.	4A	.	.	.
=13	=13	=13	=13	=13
1GG	1G	1.B-	1d]	0r
1D	4F	.	[1f	.
.	4G	.	.	.
.	4A	2A	.	.
.	4B-	.	.	.
=14	=14	=14	=14	=14
1AA	2c	0A	2f]	0r
.	2c	.	2e	.
2.AA	[1c	.	[1e	.
4BB	.	.	.	.
=15	=15	=15	=15	=15
1C	1c]	1.G	1e]	1g
1GG	1r	.	[1d	[1b-
.	.	2G	.	.
=16	=16	=16	=16	=16
1D	0r	1F	2d]	2b-]
.	.	.	2d	2a
2F	.	2r	2c	1a
2F	.	2A	[2f	.
=17	=17	=17	=17	=17
1C	2r	2c	4f]	1.g
.	.	.	4e	.
.	2G	2c	2e	.
1GG	[1B-	2d	[1d	.
.	.	[2D	.	2g
=18	=18	=18	=18	=18
2.D	2B-]	4D]	2d]	0f
.	.	4E	.	.
.	2A	4F	2d	.
4E	.	4G	.	.
1F	1A	4A	2c	.
.	.	4B-	.	.
.	.	[2c	[2f	.
=19	=19	=19	=19	=19
1C	1.G	2c]	4f]	1.g
.	.	.	4e	.
.	.	2c	1e	.
1C	.	2c	.	.
.	2G	4r	2e	2g
.	.	4c	.	.
=20	=20	=20	=20	=20
0FF	0F	2c	1f	2a
.	.	2c	.	2cc
.	.	1A	2r	2cc
.	.	.	2f	2cc
=21	=21	=21	=21	=21
0r	0r	1F	2f	1a
.	.	.	2f	.
.	.	2.B-	1d	2f
.	.	.	.	[2b-
.	.	4A	.	.
=22	=22	=22	=22	=22
0r	0r	2G	2e	4b-]
.	.	.	.	4g
.	.	2F	1f	2a
.	.	1c	.	2g
.	.	.	2e	[2cc
=23	=23	=23	=23	=23
0r	0F	2.A	2r	2cc]
.	.	.	2f	2cc
.	.	4B-	.	.
.	.	4c	2f	1a
.	.	4d	.	.
.	.	[2c	2f	.
=24	=24	=24	=24	=24
1r	[0G	2c]	1d	1g
.	.	2B	.	.
1C	.	1c	1g	2.e
.	.	.	.	4f
=25	=25	=25	=25	=25
2C	1G]	2r	1e	1g
2C	.	2c	.	.
1AA	1A	2c	2e	[1cc
.	.	2c	2c	.
=26	=26	=26	=26	=26
1FF	1A	2A	2c	1cc]
.	.	1F	2c	.
2.F	1A	.	2A	2r
.	.	[2D	2F	2a
4E	.	.	.	.
=27	=27	=27	=27	=27
1D	0A	4D]	2.f	2a
.	.	4E	.	.
.	.	4F	.	2f
.	.	4G	8e	.
.	.	.	8d	.
1AA	.	4A	1c	2e
.	.	4B	.	.
.	.	4c	.	2f
.	.	4A	.	.
=28	=28	=28	=28	=28
0r	0G	2B	2d	1.g
.	.	1c	2e	.
.	.	.	2d	.
.	.	2B	2g	2d
=29	=29	=29	=29	=29
1C	0G	1c	2g	2.e
.	.	.	2g	.
.	.	.	.	4f
2C	.	2r	[1e	1g
2C	.	2c	.	.
=30	=30	=30	=30	=30
1AA	[0A	2c	1e]	2r
.	.	2c	.	2cc
1FF	.	2A	2.f	2cc
.	.	[2F	.	2cc
.	.	.	8e	.
.	.	.	8d	.
=31	=31	=31	=31	=31
2.F	0A]	2F]	2c	1a
.	.	2.D	2.f	.
4E	.	.	.	.
2.D	.	.	.	2.f
.	.	4E	4e	.
.	.	4F	[2d	.
8C	.	8E	.	4g
8BB-	.	8D	.	.
=32	=32	=32	=32	=32
0AA	[0A	0E	2d]	1a
.	.	.	4c#	.
.	.	.	4B	.
.	.	.	1c#	1e
=33	=33	=33	=33	=33
[0D	1A_	[0D	[0d	[0f#
.	1A_	.	.	.
=34	=34	=34	=34	=34
0D]	0A]	0D]	0d]	0f#]
==	==	==	==	==
*-	*-	*-	*-	*-
!!!CDT: 1525/^1526/-1594/2/2
!!!OCY: Italia
!!!AGN: Mass (Paraphrase)
!!!AST: renaissance, vocal
!!!ASW: Gregorian Mass
!!!PWK: Masses, Book 1
!!!RNB: Cadence finals: F,G,D
!!!YOR: Le Opere Complete, v. 1, p. 164
!!!YOO: Rome, Italy: Fratelli Scalera
!!!END: 1992//
!!!EED: John Miller
!!!YEC: Copyright 2000, John Miller
!!!YEN: United States of America
!!!YEM: Rights to all derivative electronic formats reserved.
!!!YEM: Refer to licensing agreement for further details.
!!!YEM: This file must be accompanied by the licensing agreement.
!!!YEM: A copy of the licensing agreement may be found at http://www.music-cog.ohio-state.edu/HumdrumDatabases/Palestrina/license.txt
!!!EMD: converted to Humdrum by Bret Aarden
